media/book_orig.svg

<?xml version="1.0" ?><!DOCTYPE svg  PUBLIC '-//W3C//DTD SVG 1.1//EN'  'http://www.w3.org/Graphics/SVG/1.1/DTD/svg11.dtd'><svg enable-background="new 0 0 100 100" height="100px" id="Your_Icon" version="1.1" viewBox="0 0 100 100" width="100px" xml:space="preserve" xmlns="http://www.w3.org/2000/svg" xmlns:xlink="http://www.w3.org/1999/xlink"><g><g><g/></g><g/></g><g><path d="M87.5,8C86.672,8,86,8.672,86,9.5V92v3H24.5c-2.485,0-4.5-2.015-4.5-4.5s2.015-4.5,4.5-4.5H80c1.657,0,3-1.343,3-3V5   c0-1.657-1.343-3-3-3H24.5C20.357,2,17,5.357,17,9.5v81c0,4.142,3.357,7.5,7.5,7.5H86c1.656,0,3-1.343,3-3V9.5   C89,8.672,88.328,8,87.5,8z M20,9.5C20,7.014,22.014,5,24.5,5H80v78H24.5c-1.688,0-3.247,0.559-4.5,1.5V9.5z"/><path d="M24.5,89c-0.829,0-1.5,0.672-1.5,1.5s0.671,1.5,1.5,1.5h57c0.828,0,1.5-0.672,1.5-1.5S82.328,89,81.5,89H24.5z"/></g></svg>

<?xml version="1.0" encoding="UTF-8" standalone="no"?>
<svg
   xmlns:dc="http://purl.org/dc/elements/1.1/"
   xmlns:cc="http://creativecommons.org/ns#"
   xmlns:rdf="http://www.w3.org/1999/02/22-rdf-syntax-ns#"
   xmlns:svg="http://www.w3.org/2000/svg"
   xmlns="http://www.w3.org/2000/svg"
   xmlns:sodipodi="http://sodipodi.sourceforge.net/DTD/sodipodi-0.dtd"
   xmlns:inkscape="http://www.inkscape.org/namespaces/inkscape"
   enable-background="new 0 0 100 100"
   height="100px"
   id="Your_Icon"
   version="1.1"
   viewBox="0 0 100 100"
   width="100px"
   xml:space="preserve"
   inkscape:version="0.48.4 r9939"
   sodipodi:docname="book_orig.svg"
   inkscape:export-filename="/home/andrewr/src/mydetic/media/book_origx48.png"
   inkscape:export-xdpi="43.200001"
   inkscape:export-ydpi="43.200001"><metadata
     id="metadata3124"><rdf:RDF><cc:Work
         rdf:about=""><dc:format>image/svg+xml</dc:format><dc:type
           rdf:resource="http://purl.org/dc/dcmitype/StillImage" /><dc:title></dc:title></cc:Work></rdf:RDF></metadata><defs
     id="defs3122" /><sodipodi:namedview
     pagecolor="#ffffff"
     bordercolor="#666666"
     borderopacity="1"
     objecttolerance="10"
     gridtolerance="10"
     guidetolerance="10"
     inkscape:pageopacity="0"
     inkscape:pageshadow="2"
     inkscape:window-width="1855"
     inkscape:window-height="1056"
     id="namedview3120"
     showgrid="false"
     inkscape:zoom="6.26"
     inkscape:cx="20.607029"
     inkscape:cy="53.472357"
     inkscape:window-x="65"
     inkscape:window-y="24"
     inkscape:window-maximized="1"
     inkscape:current-layer="Your_Icon" /><g
     id="g3106"><g
       id="g3108"><g
         id="g3110" /></g><g
       id="g3112" /></g><rect
     style="fill:#d7ccc8;fill-opacity:1"
     id="rect3982"
     width="61.821087"
     height="80.511185"
     x="16.453674"
     y="4.7923322" /><path
     style="fill:#ffffff;stroke:none;stroke-width:1px;stroke-linecap:butt;stroke-linejoin:miter;stroke-opacity:1;fill-opacity:0.56170213"
     d="m 79.552716,7.1884984 c 0,0.798722 4.952076,2.8753996 4.952076,2.8753996 l 0,86.421725 -64.217252,-0.159744 -3.99361,-3.354633 0.638977,-7.188498 5.271566,-1.597444 56.389776,-0.479234 0.958467,-67.891374 z"
     id="path3992"
     inkscape:connector-curvature="0" /><g
     id="g3114"
     transform="translate(-2.3961661,0)"
     style="fill:#795548;fill-opacity:1"><path
       d="M 87.5,8 C 86.672,8 86,8.672 86,9.5 V 92 95 H 24.5 C 22.015,95 20,92.985 20,90.5 20,88.015 22.015,86 24.5,86 H 80 c 1.657,0 3,-1.343 3,-3 V 5 C 83,3.343 81.657,2 80,2 H 24.5 C 20.357,2 17,5.357 17,9.5 v 81 c 0,4.142 3.357,7.5 7.5,7.5 H 86 c 1.656,0 3,-1.343 3,-3 V 9.5 C 89,8.672 88.328,8 87.5,8 z M 20,9.5 C 20,7.014 22.014,5 24.5,5 H 80 V 83 H 24.5 c -1.688,0 -3.247,0.559 -4.5,1.5 v -75 z"
       id="path3116"
       inkscape:connector-curvature="0"
       style="fill:#795548;fill-opacity:1" /><path
       d="m 24.5,89 c -0.829,0 -1.5,0.672 -1.5,1.5 0,0.828 0.671,1.5 1.5,1.5 h 57 C 82.328,92 83,91.328 83,90.5 83,89.672 82.328,89 81.5,89 h -57 z"
       id="path3118"
       inkscape:connector-curvature="0"
       style="fill:#795548;fill-opacity:1" /></g><g
     style="fill:#2b1100;fill-opacity:0.35319149"
     transform="matrix(1.9714454,0,0,1.9714454,17.559183,13.459046)"
     id="g3986"><g
       style="fill:#2b1100;fill-opacity:0.35319149"
       id="g3988"><path
         style="fill:#2b1100;fill-opacity:0.35319149"
         inkscape:connector-curvature="0"
         d="M 28.378,11.715 C 27.755,8.936 24.115,4.529 16.999,4.529 c -0.806,0 -1.642,0.058 -2.488,0.174 -7.285,0.992 -11.513,5.926 -11.793,10.064 -0.109,1.618 0.195,2.823 0.904,3.582 0.26,0.278 0.569,0.49 0.916,0.634 -0.077,0.219 -0.131,0.452 -0.145,0.701 -0.041,0.729 0.224,1.833 1.715,2.953 1.198,0.898 3.348,1.945 5.299,1.945 0.02,0 0.038,-0.004 0.058,-0.005 l -0.31,3.231 h 2.368 l 0.098,-0.349 c 1.065,-3.799 2.307,-5.747 2.911,-6.534 0.417,0.12 0.887,0.227 1.431,0.311 0.285,0.044 0.569,0.066 0.846,0.066 2.519,0 3.971,-1.752 4.58,-2.715 1.485,-0.004 2.836,-0.692 3.819,-1.92 1.115,-1.392 1.552,-3.244 1.17,-4.952 z M 7.387,20.43 C 6.959,20.447 6.268,20.372 6.301,19.791 6.335,19.181 6.982,18.977 7.464,18.865 8.113,18.713 8.767,18.591 9.43,18.52 c 0.417,-0.045 0.839,-0.074 1.259,-0.074 0.618,0 1.131,0.067 1.485,0.194 0.08,0.029 0.148,0.062 0.222,0.093 0.018,0.014 0.035,0.029 0.053,0.044 -0.169,0.007 -0.339,0.057 -0.536,0.094 C 11.11,19.058 10.178,19.54 9.269,19.923 8.816,20.116 8.366,20.27 7.958,20.364 7.757,20.388 7.56,20.442 7.387,20.43 z m 2.962,1.608 C 9.888,22.366 9.366,22.278 8.874,22.062 8.642,21.96 8.377,21.643 8.617,21.422 8.76,21.29 8.997,21.23 9.17,21.143 c 0.188,-0.094 0.374,-0.195 0.556,-0.3 0.5,-0.288 0.988,-0.599 1.492,-0.881 0.375,-0.211 0.755,-0.415 1.172,-0.532 0.165,-0.046 0.347,-0.121 0.52,-0.118 0.252,0.003 0.27,0.174 0.052,0.289 -0.194,0.102 -0.398,0.16 -0.573,0.295 -0.214,0.165 -0.404,0.364 -0.585,0.563 -0.27,0.296 -0.503,0.623 -0.741,0.903 -0.238,0.283 -0.475,0.534 -0.714,0.676 z m 2.739,-0.596 c -0.137,0.737 -0.502,0.967 -0.804,1.085 -0.152,0.059 -0.438,0.094 -0.548,-0.063 -0.126,-0.179 0.08,-0.366 0.167,-0.511 0.213,-0.355 0.383,-0.695 0.567,-0.972 0.11,-0.166 0.217,-0.342 0.367,-0.475 0.545,-0.484 0.294,0.705 0.251,0.936 z m 12.627,-5.969 c -0.463,0.578 -1.134,1.083 -1.886,1.166 -1.353,0.149 -2.538,-0.836 -3.504,-1.645 C 20.028,14.745 19.742,14.425 19.432,14.112 18.813,13.465 18.189,12.707 17.456,11.955 17.076,11.584 16.711,11.2 16.267,10.864 15.634,10.332 14.882,9.989 14.123,9.678 12.74,9.315 11.34,9.485 10.129,10.245 9.733,10.509 9.538,10.7 9.538,10.7 c 0,0 1.022,-0.199 1.62,-0.11 0.442,0.066 1.045,0.454 1.172,0.899 0.086,0.3 0.005,0.623 -0.115,0.902 -0.265,0.615 -0.818,1.139 -1.452,1.355 -0.619,0.211 -1.391,0.28 -2.041,0.269 0,0 0.348,0.398 1.062,0.547 0.353,0.094 0.786,0.129 1.245,0.063 0.804,-0.114 1.514,-0.441 2.091,-1.02 0.36,-0.361 0.666,-0.933 1.146,-1.155 0.796,-0.368 1.771,0.434 2.256,0.955 0.41,0.475 0.72,0.855 0.976,1.326 0.229,0.422 0.406,0.752 0.295,1.299 -0.102,0.498 -0.816,0.741 -1.257,0.668 -0.07,-0.012 -0.61,-0.221 -0.61,-0.271 0.002,0.175 0.205,0.535 0.311,0.689 0.193,0.282 0.553,0.516 0.866,0.612 0.454,0.14 1.122,0.089 1.576,-0.063 0.674,-0.225 1.697,-0.458 1.822,0.692 0.035,0.318 -0.291,0.671 -0.55,0.801 -0.639,0.317 -1.172,0.285 -1.867,0.187 -0.671,-0.095 -1.381,-0.258 -1.967,-0.61 -0.805,-0.484 -1.452,-1.223 -1.703,-2.137 -0.178,-0.648 -0.204,-1.521 -0.163,-1.604 -0.325,0.658 -1.12,1.509 -2.091,1.598 -0.779,0.072 -1.15,0.006 -1.83,0.02 C 9.418,16.631 8.8,16.473 8.172,15.92 7.867,15.651 7.446,14.868 7.33,14.452 7.148,15.258 7.099,16.576 6.283,17.009 5.781,17.275 4.973,17.197 4.761,16.568 4.582,16.038 4.589,15.445 4.626,14.894 c 0.026,-0.386 0.1,-0.763 0.196,-1.137 0.11,-0.431 0.193,-1.093 0.727,-1.196 0.372,-0.071 0.703,0.137 1.041,0.256 0.387,0.136 0.802,0.196 1.211,0.188 0.366,-0.006 0.773,-0.148 1.043,-0.296 0.271,-0.131 0.627,-0.433 0.702,-0.642 0,0 -1.039,0.034 -1.625,-0.245 C 7.335,11.544 7.139,11.406 6.985,11.024 6.778,10.509 7.144,10.097 7.508,9.775 7.874,9.451 8.262,9.152 8.665,8.876 9.723,8.153 10.891,7.595 12.109,7.199 12.689,7.01 13.31,6.843 13.926,6.754 14.389,6.686 15.206,6.672 15.08,7.39 14.975,7.978 14.189,8.3 13.701,8.34 c 0.061,0.086 -0.082,-0.067 0,0 0.706,0.572 1.634,0.331 2.317,-0.057 0.111,-0.064 0.207,-0.146 0.299,-0.235 0.103,0.181 0.239,0.34 0.383,0.487 0.323,0.315 0.704,0.511 1.054,0.627 0.349,0.114 0.672,0.177 0.955,0.126 0.283,-0.053 0.509,-0.166 0.659,-0.29 0.151,-0.12 0.227,-0.228 0.227,-0.228 -1.072,0.055 -2.82,-1.062 -1.675,-2.065 0.195,-0.171 0.686,-0.164 0.936,-0.13 0.639,0.088 1.272,0.223 1.889,0.411 0.709,0.216 1.466,0.416 2.092,0.835 0.293,0.196 0.592,0.467 0.62,0.841 0.046,0.62 -0.604,1.255 -1.099,1.502 -1.67,0.835 -3.381,0.28 -3.381,0.28 0,0 0.024,0.147 0.134,0.364 0.111,0.211 0.32,0.471 0.638,0.685 0.314,0.226 0.748,0.339 1.225,0.414 0.241,0.032 0.495,0.053 0.76,0.041 0.262,-0.01 0.535,-0.057 0.8,-0.129 0.032,-0.009 0.063,-0.021 0.095,-0.031 0.002,0.152 0.01,0.302 0.037,0.448 0.036,0.257 0.115,0.496 0.192,0.721 0.084,0.224 0.175,0.432 0.285,0.615 0.101,0.188 0.246,0.336 0.373,0.468 0.283,0.248 0.571,0.388 0.8,0.44 0.228,0.054 0.374,0.045 0.374,0.045 0,0 -0.829,-1.235 -0.495,-2.762 0.086,-0.395 0.299,-1.026 0.703,-1.19 1.06,-0.43 1.436,0.76 1.615,1.56 0.256,1.147 -0.042,2.396 -0.798,3.34 z"
         id="path3990" /></g></g><g
     id="g3199"
     transform="matrix(1.9714454,0,0,1.9714454,16.759675,12.658661)"
     style="fill:#5d4037;fill-opacity:1"><g
       id="g3201"
       style="fill:#5d4037;fill-opacity:1"><path
         id="path3203"
         d="M 28.378,11.715 C 27.755,8.936 24.115,4.529 16.999,4.529 c -0.806,0 -1.642,0.058 -2.488,0.174 -7.285,0.992 -11.513,5.926 -11.793,10.064 -0.109,1.618 0.195,2.823 0.904,3.582 0.26,0.278 0.569,0.49 0.916,0.634 -0.077,0.219 -0.131,0.452 -0.145,0.701 -0.041,0.729 0.224,1.833 1.715,2.953 1.198,0.898 3.348,1.945 5.299,1.945 0.02,0 0.038,-0.004 0.058,-0.005 l -0.31,3.231 h 2.368 l 0.098,-0.349 c 1.065,-3.799 2.307,-5.747 2.911,-6.534 0.417,0.12 0.887,0.227 1.431,0.311 0.285,0.044 0.569,0.066 0.846,0.066 2.519,0 3.971,-1.752 4.58,-2.715 1.485,-0.004 2.836,-0.692 3.819,-1.92 1.115,-1.392 1.552,-3.244 1.17,-4.952 z M 7.387,20.43 C 6.959,20.447 6.268,20.372 6.301,19.791 6.335,19.181 6.982,18.977 7.464,18.865 8.113,18.713 8.767,18.591 9.43,18.52 c 0.417,-0.045 0.839,-0.074 1.259,-0.074 0.618,0 1.131,0.067 1.485,0.194 0.08,0.029 0.148,0.062 0.222,0.093 0.018,0.014 0.035,0.029 0.053,0.044 -0.169,0.007 -0.339,0.057 -0.536,0.094 C 11.11,19.058 10.178,19.54 9.269,19.923 8.816,20.116 8.366,20.27 7.958,20.364 7.757,20.388 7.56,20.442 7.387,20.43 z m 2.962,1.608 C 9.888,22.366 9.366,22.278 8.874,22.062 8.642,21.96 8.377,21.643 8.617,21.422 8.76,21.29 8.997,21.23 9.17,21.143 c 0.188,-0.094 0.374,-0.195 0.556,-0.3 0.5,-0.288 0.988,-0.599 1.492,-0.881 0.375,-0.211 0.755,-0.415 1.172,-0.532 0.165,-0.046 0.347,-0.121 0.52,-0.118 0.252,0.003 0.27,0.174 0.052,0.289 -0.194,0.102 -0.398,0.16 -0.573,0.295 -0.214,0.165 -0.404,0.364 -0.585,0.563 -0.27,0.296 -0.503,0.623 -0.741,0.903 -0.238,0.283 -0.475,0.534 -0.714,0.676 z m 2.739,-0.596 c -0.137,0.737 -0.502,0.967 -0.804,1.085 -0.152,0.059 -0.438,0.094 -0.548,-0.063 -0.126,-0.179 0.08,-0.366 0.167,-0.511 0.213,-0.355 0.383,-0.695 0.567,-0.972 0.11,-0.166 0.217,-0.342 0.367,-0.475 0.545,-0.484 0.294,0.705 0.251,0.936 z m 12.627,-5.969 c -0.463,0.578 -1.134,1.083 -1.886,1.166 -1.353,0.149 -2.538,-0.836 -3.504,-1.645 C 20.028,14.745 19.742,14.425 19.432,14.112 18.813,13.465 18.189,12.707 17.456,11.955 17.076,11.584 16.711,11.2 16.267,10.864 15.634,10.332 14.882,9.989 14.123,9.678 12.74,9.315 11.34,9.485 10.129,10.245 9.733,10.509 9.538,10.7 9.538,10.7 c 0,0 1.022,-0.199 1.62,-0.11 0.442,0.066 1.045,0.454 1.172,0.899 0.086,0.3 0.005,0.623 -0.115,0.902 -0.265,0.615 -0.818,1.139 -1.452,1.355 -0.619,0.211 -1.391,0.28 -2.041,0.269 0,0 0.348,0.398 1.062,0.547 0.353,0.094 0.786,0.129 1.245,0.063 0.804,-0.114 1.514,-0.441 2.091,-1.02 0.36,-0.361 0.666,-0.933 1.146,-1.155 0.796,-0.368 1.771,0.434 2.256,0.955 0.41,0.475 0.72,0.855 0.976,1.326 0.229,0.422 0.406,0.752 0.295,1.299 -0.102,0.498 -0.816,0.741 -1.257,0.668 -0.07,-0.012 -0.61,-0.221 -0.61,-0.271 0.002,0.175 0.205,0.535 0.311,0.689 0.193,0.282 0.553,0.516 0.866,0.612 0.454,0.14 1.122,0.089 1.576,-0.063 0.674,-0.225 1.697,-0.458 1.822,0.692 0.035,0.318 -0.291,0.671 -0.55,0.801 -0.639,0.317 -1.172,0.285 -1.867,0.187 -0.671,-0.095 -1.381,-0.258 -1.967,-0.61 -0.805,-0.484 -1.452,-1.223 -1.703,-2.137 -0.178,-0.648 -0.204,-1.521 -0.163,-1.604 -0.325,0.658 -1.12,1.509 -2.091,1.598 -0.779,0.072 -1.15,0.006 -1.83,0.02 C 9.418,16.631 8.8,16.473 8.172,15.92 7.867,15.651 7.446,14.868 7.33,14.452 7.148,15.258 7.099,16.576 6.283,17.009 5.781,17.275 4.973,17.197 4.761,16.568 4.582,16.038 4.589,15.445 4.626,14.894 c 0.026,-0.386 0.1,-0.763 0.196,-1.137 0.11,-0.431 0.193,-1.093 0.727,-1.196 0.372,-0.071 0.703,0.137 1.041,0.256 0.387,0.136 0.802,0.196 1.211,0.188 0.366,-0.006 0.773,-0.148 1.043,-0.296 0.271,-0.131 0.627,-0.433 0.702,-0.642 0,0 -1.039,0.034 -1.625,-0.245 C 7.335,11.544 7.139,11.406 6.985,11.024 6.778,10.509 7.144,10.097 7.508,9.775 7.874,9.451 8.262,9.152 8.665,8.876 9.723,8.153 10.891,7.595 12.109,7.199 12.689,7.01 13.31,6.843 13.926,6.754 14.389,6.686 15.206,6.672 15.08,7.39 14.975,7.978 14.189,8.3 13.701,8.34 c 0.061,0.086 -0.082,-0.067 0,0 0.706,0.572 1.634,0.331 2.317,-0.057 0.111,-0.064 0.207,-0.146 0.299,-0.235 0.103,0.181 0.239,0.34 0.383,0.487 0.323,0.315 0.704,0.511 1.054,0.627 0.349,0.114 0.672,0.177 0.955,0.126 0.283,-0.053 0.509,-0.166 0.659,-0.29 0.151,-0.12 0.227,-0.228 0.227,-0.228 -1.072,0.055 -2.82,-1.062 -1.675,-2.065 0.195,-0.171 0.686,-0.164 0.936,-0.13 0.639,0.088 1.272,0.223 1.889,0.411 0.709,0.216 1.466,0.416 2.092,0.835 0.293,0.196 0.592,0.467 0.62,0.841 0.046,0.62 -0.604,1.255 -1.099,1.502 -1.67,0.835 -3.381,0.28 -3.381,0.28 0,0 0.024,0.147 0.134,0.364 0.111,0.211 0.32,0.471 0.638,0.685 0.314,0.226 0.748,0.339 1.225,0.414 0.241,0.032 0.495,0.053 0.76,0.041 0.262,-0.01 0.535,-0.057 0.8,-0.129 0.032,-0.009 0.063,-0.021 0.095,-0.031 0.002,0.152 0.01,0.302 0.037,0.448 0.036,0.257 0.115,0.496 0.192,0.721 0.084,0.224 0.175,0.432 0.285,0.615 0.101,0.188 0.246,0.336 0.373,0.468 0.283,0.248 0.571,0.388 0.8,0.44 0.228,0.054 0.374,0.045 0.374,0.045 0,0 -0.829,-1.235 -0.495,-2.762 0.086,-0.395 0.299,-1.026 0.703,-1.19 1.06,-0.43 1.436,0.76 1.615,1.56 0.256,1.147 -0.042,2.396 -0.798,3.34 z"
         inkscape:connector-curvature="0"
         style="fill:#5d4037;fill-opacity:1" /></g></g></svg>
